X:162
T:Reel 162
M:4/4
K:Gmaj
L:1/8
Bc|dGBG AFDc|dGBG A2Ac|dGAG AFDF|GBAF G2Bc|dGBG AFDc|dGBG c2BA|GBAc Bdce|dgfa g2ge|dggf g2fe|dcde fdcA|dggf g2ag|fdcA B2Bc|dggf g2fe|dgga b2ag|gfge fdcA|BGAF G2|
